src/assets/tokens/RDN.svg

<svg height="1559" viewBox="0 0 1121 1559" width="1121" xmlns="http://www.w3.org/2000/svg"><g><path d="m352.2.6h341.7c14.7 0 9.6-1.8 21.4 7.8 20.6 16.8 40.1 34.8 59.1 53.4 45.4 44.4 87.2 91.9 125.4 142.5 49.7 65.8 92.6 135.8 127.5 210.5 29.9 63.9 53.2 130.2 69.2 199 5.9 25.5 10.8 51.3 14.6 77.3 2.8 19.3 5.1 38.7 6.7 58.1 1.8 21 3 42.1 3 63.3 0 13.4-.1 26.9-.2 40.3 0 2.6-.3 5.1-.4 7.7-.1 1.2-1.3 2.3-2.6 2.4-1 .1-1.9.2-2.9.2-2.6 0-5.1 0-7.7 0-110.4 0-220.7 0-331.1 0-3.5 0-7-.2-10.5-.3-1.2 0-2.3-1.4-2.2-2.6.2-4.8.3-9.6.6-14.4 1.5-22.1.3-44.1-1.8-66.1-7.2-75.7-28.7-147.3-61-215.8-24.9-52.9-55.9-102-91.7-148.2-35-45.1-74.1-86.4-116.4-124.7-58.8-53.2-122.6-99.6-190.1-141-62-38-126.4-71.4-192.6-101.4-34.5-15.6-69.3-30.1-104.4-44-1.8-.7-3.5-1.5-5.2-2.3-.2-.1-.3-.6-.2-.9 0-.2.3-.5.5-.5 3.2-.1 6.4-.3 9.6-.3h276.4z"/><path d="m255.3 1068.1c0-159.6 0-319.3 0-478.9 0-3.8.3-7.6.5-11.4 0-.3.3-.7.5-.7.6 0 1.4-.1 1.7.3 1.7 2.3 3.3 4.7 4.8 7.2 34.1 55.6 68.1 111.3 102.2 167 89.6 146.5 179.3 293 268.9 439.5 20.7 33.8 41.4 67.7 62.1 101.5 1.2 1.9 2.4 3.8 3.5 5.7 1.5 2.6 1.2 3.9-1.4 5.5-2.7 1.7-5.5 3.2-8.3 4.8-141.1 81.9-282.1 163.8-423.2 245.6-2.8 1.6-5.6 3.1-8.4 4.6-.6.3-2.1-.5-2.2-1.2-.2-1.3-.4-2.5-.5-3.8-.1-3.2 0-6.4 0-9.6-.2-158.7-.2-317.4-.2-476.1z"/></g></svg>

<?xml version="1.0" encoding="UTF-8"?>
<svg width="1121px" height="1559px" viewBox="0 0 1121 1559" version="1.1" xmlns="http://www.w3.org/2000/svg" xmlns:xlink="http://www.w3.org/1999/xlink">
    <defs></defs>
    <g id="Page-1" stroke="none" stroke-width="1" fill="none" fill-rule="evenodd">
        <g id="rdn-token" fill="#000000" fill-rule="nonzero">
            <path d="M352.2,0.6 C466.1,0.6 580,0.6 693.9,0.6 C708.6,0.6 703.5,-1.2 715.3,8.4 C735.9,25.2 755.4,43.2 774.4,61.8 C819.8,106.2 861.6,153.7 899.8,204.3 C949.5,270.1 992.4,340.1 1027.3,414.8 C1057.2,478.7 1080.5,545 1096.5,613.8 C1102.4,639.3 1107.3,665.1 1111.1,691.1 C1113.9,710.4 1116.2,729.8 1117.8,749.2 C1119.6,770.2 1120.8,791.3 1120.8,812.5 C1120.8,825.9 1120.7,839.4 1120.6,852.8 C1120.6,855.4 1120.3,857.9 1120.2,860.5 C1120.1,861.7 1118.9,862.8 1117.6,862.9 C1116.6,863 1115.7,863.1 1114.7,863.1 C1112.1,863.1 1109.6,863.1 1107,863.1 C996.6,863.1 886.3,863.1 775.9,863.1 C772.4,863.1 768.9,862.9 765.4,862.8 C764.2,862.8 763.1,861.4 763.2,860.2 C763.4,855.4 763.5,850.6 763.8,845.8 C765.3,823.7 764.1,801.7 762,779.7 C754.8,704 733.3,632.4 701,563.9 C676.1,511 645.1,461.9 609.3,415.7 C574.3,370.6 535.2,329.3 492.9,291 C434.1,237.8 370.3,191.4 302.8,150 C240.8,112 176.4,78.6 110.2,48.6 C75.7,33 40.9,18.5 5.8,4.6 C4,3.9 2.3,3.1 0.6,2.3 C0.4,2.2 0.3,1.7 0.4,1.4 C0.4,1.2 0.7,0.9 0.9,0.9 C4.1,0.8 7.3,0.6 10.5,0.6 C102.6,0.6 194.8,0.6 286.9,0.6 C308.7,0.6 330.4,0.6 352.2,0.6 Z" id="Shape"></path>
            <path d="M255.3,1068.1 C255.3,908.5 255.3,748.8 255.3,589.2 C255.3,585.4 255.6,581.6 255.8,577.8 C255.8,577.5 256.1,577.1 256.3,577.1 C256.9,577.1 257.7,577 258,577.4 C259.7,579.7 261.3,582.1 262.8,584.6 C296.9,640.2 330.9,695.9 365,751.6 C454.6,898.1 544.3,1044.6 633.9,1191.1 C654.6,1224.9 675.3,1258.8 696,1292.6 C697.2,1294.5 698.4,1296.4 699.5,1298.3 C701,1300.9 700.7,1302.2 698.1,1303.8 C695.4,1305.5 692.6,1307 689.8,1308.6 C548.7,1390.5 407.7,1472.4 266.6,1554.2 C263.8,1555.8 261,1557.3 258.2,1558.8 C257.6,1559.1 256.1,1558.3 256,1557.6 C255.8,1556.3 255.6,1555.1 255.5,1553.8 C255.4,1550.6 255.5,1547.4 255.5,1544.2 C255.3,1385.5 255.3,1226.8 255.3,1068.1 Z" id="Shape"></path>
        </g>
    </g>
</svg>
